**kern	**kern
*part1	*part1
*staff2	*staff1
*I"Piano	*
*clefF4	*clefG2
*k[b-]	*k[b-]
*M6/8	*M6/8
=1	=1
8r	8a 8cc
=	=
4F	8aL 8cc
.	8f 8a
8r	8gJ 8b-
4F	8aL 8cc
.	8b- 8dd
8r	8aJ 8cc
=	=
4F	4.a 4.cc
8r	.
4F	4f 4a
8r	8f 8a
=	=
4C	8eL 8g
.	8d 8f#X
8r	8eJ 8g
4C	8b-L 8dd
.	8a 8cc
8r	8gJ 8b-
=	=
[4.F	4.g 4.b-
4F]	4f 4a
8r	8a 8cc
=	=
4F	8aL 8cc
.	8f 8a
8r	8gJ 8b-
4F	8aL 8cc
.	8b- 8dd
8r	8aJ 8cc
=	=
[4.BB-	4b- 4dd
.	8cc 8een
4BB-]	4dd 4ff
8r	8b- 8dd
=	=
*-	*-
!!!system-decoration: {(s1,s2)}
